icons/1_Primary/MXroute.svg

<svg width="1024" height="1024" viewBox="0 0 1024 1024" fill="none" xmlns="http://www.w3.org/2000/svg">
<g clip-path="url(#clip0_2_2847)">
<path d="M512 1024C794.77 1024 1024 794.77 1024 512C1024 229.23 794.77 0 512 0C229.23 0 0 229.23 0 512C0 794.77 229.23 1024 512 1024Z" fill="#8C72BD"/>
<path d="M244 363.48H310.17C335.557 425.607 360.89 487.76 386.17 549.94C407.817 496.707 429.483 443.487 451.17 390.28C454.86 381.35 458.37 372.28 462.17 363.44C484.08 363.6 506.01 363.44 527.92 363.51V660.35C513.79 660.35 499.65 660.28 485.52 660.4C485.34 583.25 485.52 506.08 485.44 428.92C480.85 438.73 476.88 448.83 472.54 458.75C447.613 517.303 422.673 575.85 397.72 634.39C389.77 634.51 381.82 634.39 373.87 634.39C350.383 578.977 326.867 523.577 303.32 468.19C297.82 455 292 441.89 286.67 428.59C286.59 429.52 286.51 430.46 286.47 431.4V660.31H244V363.48ZM780 660.59C779.85 655.01 780 649.43 779.93 643.86V363.64C752.743 413.107 725.533 462.56 698.3 512C725.52 561.533 752.753 611.063 780 660.59ZM576.42 660C577.98 657.74 579.14 655.26 580.5 652.88L658 512C635.847 471.713 613.68 431.43 591.5 391.15C586.42 382.15 581.68 372.89 576.39 363.99C576.39 462.663 576.4 561.333 576.42 660Z" fill="white"/>
</g>
<defs>
<clipPath id="clip0_2_2847">
<rect width="1024" height="1024" fill="white"/>
</clipPath>
</defs>
</svg>

<svg xmlns="http://www.w3.org/2000/svg" viewBox="0 0 1024 1024">
   <circle cx="512" cy="512" r="512" style="fill:#a52c90"/>
   <path d="M244 363.48h66.17q38.08 93.19 76 186.46 32.47-79.85 65-159.66c3.69-8.93 7.2-18 11-26.84 21.91.16 43.84 0 65.75.07v296.84c-14.13 0-28.27-.07-42.4.05-.18-77.15 0-154.32-.08-231.48-4.59 9.81-8.56 19.91-12.9 29.83q-37.39 87.83-74.82 175.64c-7.95.12-15.9 0-23.85 0q-35.23-83.12-70.55-166.2c-5.5-13.19-11.32-26.3-16.65-39.6-.08.93-.16 1.87-.2 2.81v228.91H244Zm536 297.11c-.15-5.58 0-11.16-.07-16.73V363.64Q739.15 437.84 698.3 512q40.83 74.3 81.7 148.59ZM576.42 660c1.56-2.26 2.72-4.74 4.08-7.12L658 512q-33.23-60.43-66.5-120.85c-5.08-9-9.82-18.26-15.11-27.16q0 148.01.03 296.01Z" style="fill:#fff"/>
</svg>
